app/img/sprite/home-big.svg

<svg width="40" height="40" viewBox="0 0 40 40" fill="none" xmlns="http://www.w3.org/2000/svg">
<path d="M39.2766 17.3617L29.4893 10.0782V1.70211C29.4894 0.765938 28.7235 0 27.7873 0C26.8511 0 26.0852 0.765938 26.0852 1.70211V7.54477L20.9788 3.74469C20.3831 3.31914 19.6171 3.31914 19.0214 3.74469L0.723471 17.3617C-0.0424663 17.8723 -0.127623 18.8937 0.383081 19.6596C0.893705 20.4255 1.91503 20.5107 2.68097 20L4.38308 18.7401V38.2979C4.38308 39.2341 5.14902 40 6.08519 40H16.2128H23.9575H34C34.9362 40 35.7021 39.2341 35.7873 38.2979V18.8605L37.3192 20C37.6596 20.2553 38 20.3404 38.3404 20.3404C38.851 20.3404 39.3617 20.1702 39.617 19.6595C40.1277 18.9788 40.0426 17.8723 39.2766 17.3617ZM17.8298 36.6809V28.1702H22.2553V36.6809H17.8298ZM32.383 36.6809H25.6596V26.4681C25.6596 25.532 24.8936 24.766 23.9575 24.766H16.2128C15.2766 24.766 14.5107 25.532 14.5107 26.4681V36.6809H7.70214V19.2341H32.383V36.6809ZM8.3148 15.8298L20.0426 7.14891L26.6086 12.033C26.7135 12.134 26.8312 12.2218 26.959 12.2936L31.7129 15.8298H8.3148Z" fill="white"/>
</svg>

<svg width="40" height="40" fill="none" xmlns="http://www.w3.org/2000/svg"><path d="M39.3 17.4L29.5 10V1.7c0-1-.8-1.7-1.7-1.7-1 0-1.7.8-1.7 1.7v5.8L21 3.7c-.6-.4-1.4-.4-2 0L.7 17.4c-.7.5-.8 1.5-.3 2.3.5.7 1.5.8 2.3.3l1.7-1.3v19.6c0 1 .7 1.7 1.7 1.7H34c1 0 1.7-.8 1.8-1.7V18.9l1.5 1.1c.4.3.7.3 1 .3.6 0 1-.1 1.3-.6.5-.7.4-1.8-.3-2.3zM17.8 36.7v-8.5h4.5v8.5h-4.5zm14.6 0h-6.7V26.5c0-1-.8-1.7-1.7-1.7h-7.8c-1 0-1.7.7-1.7 1.7v10.2H7.7V19.2h24.7v17.5zm-24-20.9L20 7.1l6.6 5 .4.2 4.7 3.5H8.3z" fill="#fff"/></svg>
